apps/web/public/cal-com-icon-white.svg

<?xml version="1.0" encoding="UTF-8"?>
<svg width="1053px" height="195px" viewBox="0 0 1053 195" version="1.1" xmlns="http://www.w3.org/2000/svg" xmlns:xlink="http://www.w3.org/1999/xlink">
    <!-- Generator: Sketch 54 (76480) - https://sketchapp.com -->
    <title>Artboard</title>
    <desc>Created with Sketch.</desc>
    <defs>
        <polygon id="path-1" points="0 159.724401 989.690697 159.724401 989.690697 0 0 0"></polygon>
    </defs>
    <g id="Artboard" stroke="none" stroke-width="1" fill="none" fill-rule="evenodd">
        <g id="Source-File" transform="translate(32.000000, 17.000000)">
            <g id="g8" transform="translate(494.999919, 80.188903) scale(-1, 1) rotate(-180.000000) translate(-494.999919, -80.188903) translate(-0.000081, 0.188903)">
                <g id="g10">
                    <g id="g12-Clipped">
                        <mask id="mask-2" fill="white">
                            <use xlink:href="#path-1"></use>
                        </mask>
                        <g id="path14"></g>
                        <g id="g12" mask="url(#mask-2)">
                            <g transform="translate(-0.618557, -0.619445)">
                                <g id="g18" stroke-width="1" fill="none" fill-rule="evenodd" transform="translate(0.067546, 0.274166)">
                                    <path d="M152.783501,1.8583337 C148.821027,0.875894616 144.672368,0.345030623 140.417935,0.345030623 C128.43711,0.345030623 117.42309,4.47300921 108.702678,11.4014967 L108.689069,11.4014967 C106.51608,13.1396581 104.461235,15.0642724 102.592575,17.1480839 C99.2659769,20.8114791 96.4564924,24.9791021 94.3094822,29.4917558 C91.3540183,35.6899181 93.5406162,43.0959973 99.3321625,46.7724008 C106.661441,51.4176156 112.585977,58.0803614 116.336286,65.9776602 C119.212574,72.0036169 120.829482,78.7592793 120.829482,85.8729807 C120.829482,87.4655727 120.749688,89.032148 120.590719,90.5850956 L120.590719,90.5981039 C120.338966,93.1328711 119.875049,95.6019771 119.212574,97.9905553 C118.072574,102.198442 116.362884,106.166604 114.136698,109.803363 C113.83175,110.347236 113.500203,110.8781 113.129069,111.395955 C112.798142,111.913811 112.439997,112.431047 112.068863,112.935894 C111.697729,113.440122 111.326595,113.94435 110.942471,114.43557 C110.12041,115.497298 109.259379,116.505753 108.331544,117.488192 C108.317935,117.488192 108.331544,117.501201 108.331544,117.501201 C108.026595,117.833223 107.708657,118.151618 107.390719,118.457004 C106.131338,119.74421 104.805771,120.939118 103.414637,122.053499 L103.414637,122.027482 C101.704946,123.394596 99.9154614,124.62853 98.0202037,125.74353 C94.5080389,127.827342 90.7045338,129.44657 86.6752556,130.534934 C86.052369,130.70714 85.4294824,130.853328 84.7936061,130.999517 C84.5016474,131.065798 84.2103072,131.132079 83.918967,131.185351 C83.6931938,131.238004 83.4680392,131.278267 83.2428845,131.317912 C82.4610289,131.464101 81.6785547,131.596662 80.8837093,131.702587 C80.2608227,131.795504 79.6379362,131.848776 79.0014413,131.915056 L78.9884516,131.915056 C78.2331939,131.994965 77.4773177,132.048237 76.7220599,132.074254 C76.4703074,132.087881 76.2185548,132.087881 75.9668022,132.10089 C75.5424723,132.114518 75.1181425,132.127526 74.6808229,132.127526 L74.6146373,132.127526 C74.0715445,132.127526 73.5278332,132.114518 72.9977301,132.10089 C72.7459776,132.087881 72.494225,132.074254 72.2424724,132.061245 C72.1626786,132.061245 72.096493,132.061245 72.0303075,132.048237 C71.5799982,132.034609 71.1420601,131.994965 70.6917508,131.95532 C70.6255652,131.95532 70.5593797,131.95532 70.4931941,131.941693 C69.7769055,131.875412 69.0748436,131.795504 68.3721632,131.702587 C67.8024725,131.636306 67.2191736,131.54339 66.6494829,131.437465 C65.7346375,131.278267 64.8204108,131.092434 63.9321634,130.879965 C63.4818541,130.77404 63.0315448,130.667495 62.5936067,130.534934 C62.1432974,130.415381 61.7059778,130.295828 61.2686583,130.163267 C57.2263903,128.942342 53.409277,127.176925 49.9101018,124.960552 C47.4847411,123.420613 45.2183494,121.655816 43.1375247,119.691557 C42.7799989,119.386171 42.4484525,119.054148 42.1175247,118.709118 C41.798968,118.417359 41.4946381,118.098345 41.2026794,117.779951 C41.1630918,117.753315 41.1364938,117.726679 41.1235041,117.687034 C39.4138134,115.908609 37.8630918,113.983995 36.4713393,111.940447 L36.4713393,111.926819 C35.9944321,111.249766 35.556494,110.559705 35.1327826,109.856635 C35.1061847,109.816372 35.0795868,109.776727 35.0665971,109.737083 C34.324329,108.50253 33.6352569,107.24196 33.0123703,105.941126 C32.8002054,105.503179 32.5880404,105.065232 32.4024734,104.627284 C32.0047415,103.75077 31.6472157,102.848859 31.3156693,101.946328 C30.9711332,101.03017 30.6661848,100.114631 30.3878343,99.1718361 C30.0698962,98.1101081 29.7915456,97.0483802 29.5527828,95.960016 C28.824123,92.7085515 28.4399993,89.3369147 28.4399993,85.8729807 C28.4399993,85.1166389 28.452989,84.3466693 28.5061849,83.6033358 C28.4925766,83.5636914 28.4925766,83.5240469 28.5061849,83.4974108 C28.5587622,82.4090467 28.6515457,81.333691 28.7845354,80.271963 C28.9967003,78.4272571 29.3276281,76.6221956 29.7649477,74.8567786 C29.9239168,74.153709 30.123092,73.45002 30.335257,72.7599587 C30.4410302,72.4149281 30.5468034,72.0698975 30.6531951,71.7248668 C30.9711332,70.7027833 31.3292776,69.7073359 31.726391,68.7248968 C32.1111332,67.7430772 32.5348445,66.7742659 32.9987621,65.8314712 C33.0123703,65.8048351 33.02536,65.7788185 33.0389682,65.7521823 C33.3569064,65.1147739 33.6748445,64.4779849 34.0193806,63.8542042 C34.1783497,63.5358097 34.350927,63.2304235 34.536494,62.9250373 C34.6688651,62.6729234 34.8148445,62.4338178 34.9738136,62.1817039 C35.1723703,61.8100371 35.3845352,61.4650065 35.6232981,61.1063481 C35.9944321,60.5092035 36.3915455,59.9250673 36.8028857,59.3415505 C37.0014424,59.0628005 37.2136073,58.7704226 37.412164,58.4916726 C37.6113393,58.1999142 37.8228857,57.9211641 38.0486588,57.6424141 C38.2738135,57.363664 38.4859784,57.084914 38.7111331,56.8061639 C39.2678341,56.1161027 39.8375248,55.4390498 40.4474217,54.788633 C40.6725763,54.5235107 40.9113392,54.2713968 41.1630918,54.0192828 C41.9319577,53.196041 42.7404113,52.4000547 43.5754628,51.6567212 C43.7870092,51.4442518 43.9991742,51.2584184 44.2113391,51.072585 C46.0008236,49.5066292 47.909071,48.0596067 49.9366998,46.7854092 C50.4402049,46.4540063 50.9573183,46.1349924 51.4874214,45.843234 C51.5802049,45.7899618 51.6729884,45.737309 51.7793801,45.6840367 C52.0571121,45.5112117 52.3354626,45.3520145 52.6138131,45.2194533 C52.9719574,45.0069838 53.3430914,44.8211505 53.7272152,44.6223088 C54.3501017,44.3039142 54.9729883,44.0115364 55.6094831,43.719778 C56.6164934,43.2551946 57.637112,42.8302556 58.6843284,42.4585889 C59.0554624,42.3260277 59.4259779,42.1934666 59.8107202,42.0609055 C60.1682459,41.9277249 60.5263902,41.8087915 60.883916,41.7158749 C61.2420603,41.596322 61.6131943,41.4897776 61.9707201,41.3838526 C62.3418541,41.2642998 62.6999984,41.1713831 63.0711324,41.0914747 C63.4422665,40.998558 63.8134005,40.9056414 64.1845345,40.8133441 C65.297318,40.5476024 66.4243282,40.3221246 67.5773179,40.1629273 C68.6771117,39.977094 69.7905137,39.8439134 70.9169054,39.7509967 C77.9282455,29.5710447 87.4441215,21.2364181 98.5503068,15.6217725 C91.0490699,13.0603692 83.0041216,11.6802467 74.6412352,11.6802467 C33.1979373,11.6802467 -0.306804116,45.7639451 0.567835037,87.4525644 C1.38927832,126.978083 33.582061,159.216456 73.050926,160.052706 C85.6280391,160.318448 97.5166986,157.438031 107.973399,152.142399 C121.757317,145.187895 133.088656,134.039132 140.258966,120.36799 C143.241027,114.700692 145.507419,108.595446 146.938759,102.184814 C148.118347,96.9288274 148.741233,91.4739985 148.741233,85.8729807 C148.741233,65.9113796 140.868862,47.8074927 128.078966,34.4689929 C126.117523,32.4378341 125.826182,29.3189308 127.310718,26.9167247 C131.591131,19.9485928 136.985564,13.7504305 143.241027,8.5607239 C146.236079,6.07922897 149.430306,3.8362202 152.783501,1.8583337" id="path20" fill="#3C73C5" fill-rule="nonzero"></path>
                                </g>
                                <g id="g22" stroke-width="1" fill="none" fill-rule="evenodd" transform="translate(27.901979, 83.669431)">
                                    <path d="M0.618556686,2.47777826 C0.618556686,1.72143645 0.631546376,0.964475189 0.671752561,0.208133374 C0.618556686,0.951466853 0.605566995,1.72143645 0.605566995,2.47777826 C0.605566995,5.94171228 0.989690697,9.31334905 1.71835047,12.5648136 C1.00268039,9.31334905 0.618556686,5.94171228 0.618556686,2.47777826" id="path24" fill="#3C73C5" fill-rule="nonzero"></path>
                                </g>
                                <g id="g26" stroke-width="1" fill="none" fill-rule="evenodd" transform="translate(28.851834, 74.971252)">
                                    <path d="M0,5.57500109 C0.225154634,3.73029518 0.556701017,1.92523371 0.981030903,0.159816698 C0.543711327,1.92523371 0.212164943,3.73029518 0,5.57500109" id="path28" fill="#3C73C5" fill-rule="nonzero"></path>
                                </g>
                                <g id="g30" stroke-width="1" fill="none" fill-rule="evenodd" transform="translate(30.720618, 68.901562)">
                                    <path d="M0,3.09722283 C0.317938136,2.0751393 0.676082457,1.07969188 1.07381441,0.0978722414 C0.689072148,1.07969188 0.317938136,2.0751393 0,3.09722283" id="path32" fill="#3C73C5" fill-rule="nonzero"></path>
                                </g>
                                <g id="g34" stroke-width="1" fill="none" fill-rule="evenodd" transform="translate(36.242350, 111.766879)">
                                    <path d="M4.94845348,6.19444566 C3.2517525,4.40239253 1.70164944,2.49140604 0.296288652,0.447238977 C1.68804119,2.49140604 3.23876281,4.41602031 4.94845348,6.19444566" id="path36" fill="#3C73C5" fill-rule="nonzero"></path>
                                </g>
                                <g id="g38" stroke-width="1" fill="none" fill-rule="evenodd" transform="translate(43.173710, 119.659655)">
                                    <path d="M6.80412354,5.57500109 L6.80412354,5.54836498 C4.37876278,4.00904523 2.11237108,2.25663655 0.031546391,0.306005616 C2.11237108,2.27026433 4.37876278,4.03568135 6.80412354,5.57500109" id="path40" fill="#3C73C5" fill-rule="nonzero"></path>
                                </g>
                                <g id="g42" stroke-width="1" fill="none" fill-rule="evenodd" transform="translate(66.195462, 131.198359)">
                                    <path d="M1.23711337,0.619444566 C0.998350491,0.579800114 0.760206167,0.539536217 0.521443286,0.499891765 L0.521443286,0.513519545 C0.760206167,0.553163997 0.998350491,0.579800114 1.23711337,0.619444566" id="path44" fill="#3C73C5" fill-rule="nonzero"></path>
                                </g>
                                <g id="g46" stroke-width="1" fill="none" fill-rule="evenodd" transform="translate(67.203895, 131.356070)">
                                    <path d="M1.23711337,0.619444566 C0.898762864,0.574225113 0.564742254,0.518475102 0.230103087,0.465202869 C0.565360811,0.517855657 0.899381421,0.574225113 1.23711337,0.619444566" id="path48" fill="#3C73C5" fill-rule="nonzero"></path>
                                </g>
                                <g id="g50" stroke-width="1" fill="none" fill-rule="evenodd" transform="translate(68.086266, 131.596538)">
                                    <path d="M2.47422674,0.619444566 C1.762268,0.556880665 1.05711338,0.473255648 0.355051538,0.379100074 C1.05649482,0.472636204 1.762268,0.553783442 2.47422674,0.619444566" id="path52" fill="#3C73C5" fill-rule="nonzero"></path>
                                </g>
                                <g id="g54" stroke-width="1" fill="none" fill-rule="evenodd" transform="translate(77.194823, 131.566743)">
                                    <path d="M1.85567006,0.619444566 C1.34226801,0.665283464 0.827010289,0.701830693 0.311134013,0.731564032 C0.827628845,0.701830693 1.34288656,0.667761242 1.85567006,0.619444566" id="path56" fill="#3C73C5" fill-rule="nonzero"></path>
                                </g>
                                <g id="g58" stroke-width="1" fill="none" fill-rule="evenodd" transform="translate(75.503813, 131.689455)">
                                    <path d="M1.85567006,0.619444566 C1.41835048,0.646080682 0.967422656,0.672716799 0.53010308,0.685725135 C0.781855651,0.672716799 1.03422678,0.672716799 1.28597935,0.659089018 C1.48453605,0.646080682 1.67010305,0.632452902 1.85567006,0.619444566" id="path60" fill="#3C73C5" fill-rule="nonzero"></path>
                                </g>
                                <g id="g62" stroke-width="1" fill="none" fill-rule="evenodd" transform="translate(163.990882, 41.489716)">
                                    <path d="M80.4123691,81.1472381 L80.4123691,1.66320866 L58.5791738,1.66320866 L58.5791738,11.11903 C52.5296894,4.17443693 43.6781432,0.481308428 33.9414425,0.481308428 C14.0245357,0.481308428 0.0105154637,11.7099801 0.0105154637,36.2344099 L0.0105154637,81.1472381 L23.023917,81.1472381 L23.023917,39.6326828 C23.023917,26.3363052 28.9255663,20.4261846 39.1051537,20.4261846 C49.7276276,20.4261846 57.3989676,27.2227303 57.3989676,41.8490554 L57.3989676,81.1472381 L80.4123691,81.1472381 Z" id="path64" fill="#3C73C5" fill-rule="nonzero"></path>
                                </g>
                                <path d="M265.795045,122.637016 L288.808446,122.637016 L288.808446,43.1529862 L265.795045,43.1529862 L265.795045,122.637016 Z M262.991746,146.570495 C262.991746,153.810564 268.746179,159.42397 277.302673,159.42397 C285.859168,159.42397 291.612364,154.106039 291.612364,147.014018 C291.612364,139.331666 285.859168,133.71764 277.302673,133.71764 C268.746179,133.71764 262.991746,139.331666 262.991746,146.570495 L262.991746,146.570495 Z" id="path66" fill="#3C73C5" fill-rule="nonzero"></path>
                                <g id="g68" stroke-width="1" fill="none" fill-rule="evenodd" transform="translate(304.279477, 41.522113)">
                                    <path d="M22.8865974,48.3166761 L61.9818541,48.3166761 C60.3587614,58.3628281 52.8352564,64.8638988 42.507834,64.8638988 C32.0331951,64.8638988 24.5096901,58.5108754 22.8865974,48.3166761 M83.2261835,34.8722513 L23.1816489,34.8722513 C25.3948447,24.9741466 33.8041229,18.9165982 45.901236,18.9165982 C54.3105141,18.9165982 60.3587614,21.4284459 65.8181427,26.5989497 L78.0618537,13.3025721 C70.6855652,4.88122318 59.6208233,0.44909731 45.3111329,0.44909731 C17.8713398,0.44909731 0.0191752573,17.7346979 0.0191752573,41.373322 C0.0191752573,65.1593739 18.1663913,82.2969273 42.3606175,82.2969273 C65.6703076,82.2969273 83.6684515,66.6361297 83.6684515,41.0778469 C83.6684515,39.3043772 83.3734,36.7931489 83.2261835,34.8722513" id="path70" fill="#3C73C5" fill-rule="nonzero"></path>
                                </g>
                                <g id="g72" stroke-width="1" fill="none" fill-rule="evenodd" transform="translate(403.081846, 42.671802)">
                                    <path d="M49.4845348,81.1472381 L49.4845348,59.8724145 C47.5663906,60.0204618 46.0911329,60.1678896 44.3202051,60.1678896 C31.6336075,60.1678896 23.2237108,53.2245354 23.2237108,38.0072602 L23.2237108,0.481308428 L0.209690716,0.481308428 L0.209690716,79.9653379 L22.1919582,79.9653379 L22.1919582,69.4756636 C27.7973189,77.1586346 37.2395867,81.1472381 49.4845348,81.1472381" id="path74" fill="#3C73C5" fill-rule="nonzero"></path>
                                </g>
                                <g id="g76" stroke-width="1" fill="none" fill-rule="evenodd" transform="translate(459.199349, 41.392587)">
                                    <path d="M64.3298953,41.5027859 C64.3298953,55.2426858 55.6255656,63.5159875 44.1185556,63.5159875 C32.610927,63.5159875 23.7593808,55.2426858 23.7593808,41.5027859 C23.7593808,27.7622666 32.610927,19.4889649 44.1185556,19.4889649 C55.6255656,19.4889649 64.3298953,27.7622666 64.3298953,41.5027859 M0.449072154,41.5027859 C0.449072154,65.4368851 18.8913397,82.4263912 44.1185556,82.4263912 C69.3451529,82.4263912 87.6383483,65.4368851 87.6383483,41.5027859 C87.6383483,17.5686868 69.3451529,0.578561225 44.1185556,0.578561225 C18.8913397,0.578561225 0.449072154,17.5686868 0.449072154,41.5027859" id="path78" fill="#3C73C5" fill-rule="nonzero"></path>
                                </g>
                                <g id="g80" stroke-width="1" fill="none" fill-rule="evenodd" transform="translate(542.057615, 42.824619)">
                                    <polygon id="path82" fill="#3C73C5" fill-rule="nonzero" points="33.402061 84.244461 0.356288651 84.244461 0.356288651 103.746434 90.3476266 103.746434 90.3476266 84.244461 57.3024728 84.244461 57.3024728 0.32830562 33.402061 0.32830562"></polygon>
                                </g>
                                <g id="g84" stroke-width="1" fill="none" fill-rule="evenodd" transform="translate(641.395654, 41.489716)">
                                    <path d="M80.4123691,81.1472381 L80.4123691,1.66320866 L58.5791738,1.66320866 L58.5791738,11.11903 C52.5296894,4.17443693 43.6781432,0.481308428 33.9414425,0.481308428 C14.0245357,0.481308428 0.0105154637,11.7099801 0.0105154637,36.2344099 L0.0105154637,81.1472381 L23.023917,81.1472381 L23.023917,39.6326828 C23.023917,26.3363052 28.9255663,20.4261846 39.1051537,20.4261846 C49.7276276,20.4261846 57.3989676,27.2227303 57.3989676,41.8490554 L57.3989676,81.1472381 L80.4123691,81.1472381 Z" id="path86" fill="#3C73C5" fill-rule="nonzero"></path>
                                </g>
                                <g id="g88" stroke-width="1" fill="none" fill-rule="evenodd" transform="translate(742.989940, 42.671802)">
                                    <path d="M49.4845348,81.1472381 L49.4845348,59.8724145 C47.5663906,60.0204618 46.0911329,60.1678896 44.3202051,60.1678896 C31.6336075,60.1678896 23.2237108,53.2245354 23.2237108,38.0072602 L23.2237108,0.481308428 L0.209690716,0.481308428 L0.209690716,79.9653379 L22.1919582,79.9653379 L22.1919582,69.4756636 C27.7973189,77.1586346 37.2395867,81.1472381 49.4845348,81.1472381" id="path90" fill="#3C73C5" fill-rule="nonzero"></path>
                                </g>
                                <g id="g92" stroke-width="1" fill="none" fill-rule="evenodd" transform="translate(805.685485, 42.817805)">
                                    <path d="M81.6494825,45.8388979 L81.6494825,0.33511951 L58.636081,0.33511951 L58.636081,42.2931972 C58.636081,55.1466719 52.7338131,61.0561731 42.5542257,61.0561731 C31.4907209,61.0561731 23.5230922,54.2608662 23.5230922,39.6345411 L23.5230922,0.33511951 L0.509690709,0.33511951 L0.509690709,79.819149 L22.4919582,79.819149 L22.4919582,70.5113749 C28.687422,77.3079207 37.9818547,81.0010492 48.7515452,81.0010492 C67.4876272,81.0010492 81.6494825,70.0684721 81.6494825,45.8388979" id="path94" fill="#3C73C5" fill-rule="nonzero"></path>
                                </g>
                                <g id="g96" stroke-width="1" fill="none" fill-rule="evenodd" transform="translate(902.670658, 41.392587)">
                                    <path d="M64.3298953,41.5027859 C64.3298953,55.2426858 55.6255656,63.5159875 44.1185556,63.5159875 C32.610927,63.5159875 23.7593808,55.2426858 23.7593808,41.5027859 C23.7593808,27.7622666 32.610927,19.4889649 44.1185556,19.4889649 C55.6255656,19.4889649 64.3298953,27.7622666 64.3298953,41.5027859 M0.450927824,41.5027859 C0.450927824,65.4368851 18.8913397,82.4263912 44.1185556,82.4263912 C69.3451529,82.4263912 87.6383483,65.4368851 87.6383483,41.5027859 C87.6383483,17.5686868 69.3451529,0.578561225 44.1185556,0.578561225 C18.8913397,0.578561225 0.450927824,17.5686868 0.450927824,41.5027859" id="path98" fill="#3C73C5" fill-rule="nonzero"></path>
                                </g>
                            </g>
                        </g>
                    </g>
                </g>
            </g>
        </g>
    </g>
</svg>

<svg width="260px" height="150px" viewBox="0 0 160 164" version="1.1" xmlns="http://www.w3.org/2000/svg"
    xmlns:xlink="http://www.w3.org/1999/xlink">
    <title>Artboard</title>
    <desc>
        Created with Sketch.
    </desc>
    <g id="g8" transform="matrix(1 0 0 -1 0 162)">
        <path
            d="M152.785 1.855a50.143 50.143 0 0 0 -12.365 -1.514 50.845 50.845 0 0 0 -31.71 11.051h-0.01a50.143 50.143 0 0 0 -6.097 5.746 50.143 50.143 0 0 0 -8.284 12.345 13.539 13.539 0 0 0 5.024 17.279 46.131 46.131 0 0 1 17.008 19.205 46.131 46.131 0 0 1 4.493 19.897q0 2.387 -0.241 4.713v0.01a44.126 44.126 0 0 1 -1.374 7.391 45.129 45.129 0 0 1 -5.074 11.814 20.057 20.057 0 0 1 -1.013 1.595 30.086 30.086 0 0 1 -1.063 1.544q-0.552 0.762 -1.123 1.504a40.114 40.114 0 0 1 -2.607 3.049v0.01q-0.461 0.501 -0.943 0.953a40.114 40.114 0 0 1 -3.971 3.6v-0.03a50.143 50.143 0 0 1 -5.395 3.721 45.129 45.129 0 0 1 -13.248 5.265l-0.872 0.181 -0.672 0.13a40.114 40.114 0 0 1 -4.242 0.592h-0.01q-1.133 0.12 -2.266 0.16l-0.752 0.03q-0.632 0.02 -1.284 0.03h-0.07q-0.812 0 -1.615 -0.03l-0.752 -0.04 -0.211 -0.01q-0.672 -0.02 -1.334 -0.09l-0.201 -0.01a50.143 50.143 0 0 1 -2.116 -0.241 40.766 40.766 0 0 1 -4.443 -0.822q-0.682 -0.15 -1.334 -0.341l-1.324 -0.371a46.131 46.131 0 0 1 -11.362 -5.205 45.129 45.129 0 0 1 -6.769 -5.265 10.029 10.029 0 0 1 -1.023 -0.983 10.029 10.029 0 0 1 -0.913 -0.933q-0.06 -0.04 -0.08 -0.09a44.126 44.126 0 0 1 -4.653 -5.746v-0.01a40.114 40.114 0 0 1 -1.334 -2.066l-0.07 -0.12a50.143 50.143 0 0 1 -2.056 -3.801q-0.321 -0.662 -0.612 -1.314a40.114 40.114 0 0 1 -1.083 -2.678 40.114 40.114 0 0 1 -0.933 -2.778 40.114 40.114 0 0 1 -0.832 -3.209 46.131 46.131 0 0 1 -1.113 -10.089 30.086 30.086 0 0 1 0.07 -2.377q0.08 -1.635 0.281 -3.229a40.114 40.114 0 0 1 1.554 -7.511l0.321 -1.033a40.114 40.114 0 0 1 1.073 -2.999 40.114 40.114 0 0 1 1.244 -2.908l0.04 -0.08q0.471 -0.963 0.983 -1.895 0.241 -0.471 0.521 -0.933l0.441 -0.742q0.301 -0.542 0.652 -1.073 0.562 -0.903 1.183 -1.765l0.612 -0.852q0.301 -0.431 0.632 -0.852l0.662 -0.832a40.114 40.114 0 0 1 1.735 -2.016q0.341 -0.401 0.712 -0.772a40.114 40.114 0 0 1 2.417 -2.367q0.321 -0.311 0.632 -0.582a45.129 45.129 0 0 1 5.726 -4.292 20.057 20.057 0 0 1 1.845 -1.103 10.029 10.029 0 0 1 0.832 -0.461q0.542 -0.301 1.113 -0.602 0.933 -0.471 1.885 -0.903a40.114 40.114 0 0 1 3.079 -1.264l1.123 -0.401q0.532 -0.201 1.073 -0.341a30.086 30.086 0 0 1 2.186 -0.622l1.113 -0.281a40.114 40.114 0 0 1 3.39 -0.652q1.655 -0.281 3.34 -0.411a74.211 74.211 0 0 1 27.629 -24.129A74.161 74.161 0 0 0 0.572 87.449c0.822 39.523 33.014 71.764 72.487 72.597a73.61 73.61 0 0 0 34.919 -7.913 74.211 74.211 0 0 0 32.282 -31.771 73.209 73.209 0 0 0 6.679 -18.182 74.211 74.211 0 0 0 1.805 -16.316 74.011 74.011 0 0 0 -20.659 -51.406 6.218 6.218 0 0 1 -0.772 -7.552A74.211 74.211 0 0 1 143.238 8.564a73.209 73.209 0 0 1 9.547 -6.699"
            id="path20" fill="#3C73C5" fill-rule="nonzero" />
    </g>
</svg>
